X:1
T:Title
%%score { 1 | 2 }
L:1/8
Q:1/4=100
M:4/4
K:Bb
V:1 treble nm="Grand Piano"
V:2 bass 
V:1
 [DF]3 [DF] [DF]2 [DF]2 | [EG]2 [DF]2 [DF] [FB]3 | A3 B c2 d2 | [DB]6 z2 | [DF]3 [DF] [DF]2 [DF]2 | %5
w: Alfred~Taylor * * *|||||
 [EG]2 [DF]2 [DF] [FB]3 | A3 A G2 F2 | [DB]6 z2 | A3 B c2 =B2 | c2 e2 [Fd] [FB]3 | %10
w: |||||
 [EG]3 [FA] [FB]2 [Fd]2 | [Fc]6 z2 | [DF]3 [DF] [DF]2 [DF]2 | [EG]2 [DF]2 [DF] [FB]3 | A3 A G2 F2 | %15
w: |||||
 [DB]6 z2 | [DF]2 [DF]2 [EG] [DF]3 | [DF]2 [DF]2 [EG] [DF]3 | [FB]2 [FB]2 [Gc][GB][FA][EG] | %19
w: ||||
 [EG] [DF]3- [DF]2 z2 | F2 F2 GABd | c [DB]3- [DB]2 z2 |] %22
w: |||
V:2
 [B,,B,]3 [B,,B,] [B,,B,]2 [B,,B,]2 | [B,,B,]2 [B,,B,]2 [B,,B,] [D,B,]3 | %2
 [F,CF]3 [F,DF] [F,EF]2 [F,A,F]2 | [B,,B,]6 z2 | [B,,B,]3 [B,,B,] [B,,B,]2 [B,,B,]2 | %5
 [B,,B,]2 [B,,B,]2 [B,,B,] [D,B,]3 | [F,CE]3 [F,CE] [F,B,E]2 [F,A,E]2 | [B,,F,]6 z2 | %8
 [F,F]3 [F,DF] [F,EF]2 [E,DF]2 | [F,EF]2 [F,A,F]2 [B,,B,] [D,B,]3 | %10
 [E,B,]3 [E,C] [D,B,]2 [B,,B,]2 | [F,A,]6 z2 | [B,,B,]3 [B,,B,] [B,,B,]2 [B,,B,]2 | %13
 [B,,B,]2 [B,,B,]2 [B,,B,] [D,B,]3 | [F,CE]3 [F,CE] [F,B,E]2 [F,A,E]2 | [B,,F,]6 z2 | %16
 [B,,B,]2 [B,,B,]2 [B,,B,] [B,,B,]3 | [B,,B,]2 [B,,B,]2 [B,,B,] [B,,B,]3 | %18
 [D,B,]2 [D,B,]2 [E,B,][E,B,][E,B,][E,B,] | [B,,B,] [B,,B,]3- [B,,B,]2 z2 | %20
 [F,B,D]2 [F,D]2 [F,CE][F,EF][F,DF][F,B,F] | [F,A,E] [B,,F,]3- [B,,F,]2 z2 |] %22

